X:1
T:Caprice No. 11
T:Caprice No. 11
T:Op. 20
T:Luigi Legnani (1790 - 1877)
C:Luigi Legnani
%%score ( 1 2 )
L:1/8
Q:1/4=80
M:2/4
K:E
V:1 treble-8 nm="Classical Guitar" snm="Guit."
V:2 treble-8 
V:1
"^Andante"!mf! E2 z !>!E | B2 z !>!c | z !>!B z !>!A | [DF]2 z2 | E2 z !>!E | B2 z !>!c | %6
 z !>!B z !>!A | FD E2 | B2 z !>!B |"^II" f2 z f | fc fe | [Bd]2 z2 | E2 z !>!E | B2 z !>!c | %14
 z !>!B z !>!A | FD E2 | z/ E/ z/ E/ z/ E/ z/ E/ | z/ B/ z/ B/ z/ B/ z/ c/ | z z/ B/ z z/ A/ | %19
 z/ F/ z/ F/ z/ E/ z/ D/ | z/ E/ z/ E/ z/ E/ z/ E/ | z/ B/ z/ B/ z/ B/ z/ c/ | z z/ B/ z z/ A/ | %23
 z/ F/ z/ D/ E2 | z/ B/ z/ B/ z/ B/ z/ B/ | z/ f/ z/ f/ z/ f/ z/ f/ | z/ f/ z/ c/ z/ f/ z/ e/ | %27
 z/ d/ z/ c/ z/ B/ z/ A/ | [EG]/E/ z/ E/ z/ E/ z/ E/ | z/ B/ z/ B/ z/ B/ z/ c/ | z z/ B/ z z/ A/ | %31
 z/ F/ z/ D/ E2 | z/ B/ z/ B/ z/ B/ z/ B/ | z/ f/ z/ f/ z/ f/ z/ f/ | z/ f/ z/ c/ z/ f/ z/ e/ | %35
 z/ d/ z/ c/ z/ B/ z/ A/ | [EG]/E/ z/ E/ z/ E/ z/ E/ | z/ B/ z/ B/ z/ B/ z/ c/ | z z/ B/ z z/ A/ | %39
 z z/ G/ z z/ F/ | z/ B/ z/ B/ z/ B/ z/ B/ | z/ e/ z/ e/ z/ e/ z/ e/ | z [GBe] z [FAd] | %43
"^IV" e2 fg | eb fg | e2 AB | GB AB | [B,EG][B,EG] [B,EG][B,EG] | [B,EG]2 z2 |] %49
V:2
 E,F, G,^A, | [B,D][CE] [DF][^EG] | [FA][DF] [EG][CE] | B,A, G,F, | E,F, G,^A, | %5
 [B,D][CE] [DF][^EG] | [FA][DF] [EG][CE] | A,B, E,2 | B,C D^E | [F^A][GB] [Ac][Bd] | %10
 [ce][E^A] [DB][CA] | B,=A, G,F, | E,F, G,^A, | [B,D][CE] [DF][^EG] | [FA][DF] [EG][CE] | %15
 A,B, E,2 | E,/ z/ F,/ z/ G,/ z/ ^A,/ z/ | B,/D/C/E/ D/F/^E/G/ | F/A/D/F/ E/G/C/E/ | %19
 B,/D/A,/D/ G,/B,/F,/A,/ | E,/ z/ F,/ z/ G,/ z/ ^A,/ z/ | B,/D/C/E/ D/F/^E/G/ | F/A/D/F/ E/G/C/E/ | %23
 A,/ z/ B,/ z/ E,2 | B,/ z/ C/ z/ D/ z/ ^E/ z/ | F/^A/G/B/ A/c/B/d/ | c/e/E/^A/ D/B/C/A/ | %27
 B,/B/A,/A/ G,/G/F,/D/ | E,/ z/ F,/ z/ G,/ z/ ^A,/ z/ | B,/D/C/E/ D/F/^E/G/ | F/A/D/F/ E/G/C/E/ | %31
 A,/ z/ B,/ z/ E,2 | B,/ z/ C/ z/ D/ z/ ^E/ z/ | F/^A/G/B/ A/c/B/d/ | c/e/E/^A/ D/B/C/A/ | %35
 B,/B/A,/A/ G,/G/F,/D/ | E,/ z/ F,/ z/ G,/ z/ ^A,/ z/ | B,/D/C/E/ D/F/^E/G/ | F/A/D/F/ E/G/C/E/ | %39
 D/F/^B,/D/ C/E/^A,/C/ | B,/D/=A,/D/ G,/E/F,/A/ | E,/G/F,/A/ G,/B/^A,/=G/ | B, z B, z | %43
 E,/4B/4G/4B/4G/4B/4G/4B/4 E,/4B/4A/4B/4A/4B/4A/4B/4 | %44
 E,/4B/4G/4B/4G/4B/4G/4B/4 E,/4B/4A/4B/4A/4B/4A/4B/4 | %45
 E,/4B/4G/4B/4G/4B/4G/4B/4 E,/4D/4B,/4D/4B,/4D/4B,/4D/4 | %46
 E,/4E/4B,/4E/4B,/4E/4B,/4E/4 E,/4D/4B,/4D/4B,/4D/4B,/4D/4 | E,E, E,E, | E,2 z2 |] %49

